public/icons/icon/blob.svg

<svg width="30" height="30" viewBox="0 0 30 30" fill="none" xmlns="http://www.w3.org/2000/svg">
<path d="M1.98125 12.4723C1.83836 12.6938 2.09551 13.0008 2.33213 12.8846C3.14685 12.4842 3.93568 12.0619 4.70733 11.5967C4.93448 11.4598 5.18303 11.7046 5.0359 11.9253C3.13151 14.7818 -1.59634 21.7981 3.60918 22.2578C6.76899 22.5368 9.93894 19.9616 12.9133 17.2735C13.1318 17.0759 13.4376 17.335 13.2743 17.5802C10.8537 21.2143 6.41515 28.636 12.2493 28.99C17.3234 29.298 16.1533 24.5977 27.679 18.2524C28.5169 17.7911 28.7805 16.8396 28.5707 15.9125C28.1988 13.9184 24.4364 13.9496 22.3466 14.4984C22.0925 14.5651 21.8477 14.245 22.0182 14.045C24.5643 11.0592 31.8711 3.60414 27.2697 1.27741C23.219 -0.770836 13.918 8.89819 9.96535 12.5406C9.75706 12.7325 9.52989 12.5192 9.69793 12.2912C11.6423 9.65308 14.1864 6.73192 14.6429 3.69364C14.7073 3.26555 14.628 2.86103 14.4053 2.48008C14.1825 2.09913 13.8587 1.8145 13.4339 1.6262C9.1247 -0.284007 4.20268 9.02761 1.98125 12.4723Z" fill="black"/>
</svg>

<svg xmlns="http://www.w3.org/2000/svg" width="30" height="30" fill="none"><path fill="#000" d="M1.981 12.472c-.143.222.115.529.351.413.815-.4 1.604-.823 2.375-1.288.227-.137.476.108.329.328-1.904 2.857-6.632 9.873-1.427 10.333 3.16.279 6.33-2.296 9.304-4.985.219-.197.525.062.361.307-2.42 3.634-6.859 11.056-1.025 11.41 5.074.308 3.904-4.392 15.43-10.738.838-.46 1.102-1.412.892-2.34-.372-1.994-4.135-1.962-6.224-1.414-.255.067-.5-.253-.329-.453 2.546-2.986 9.853-10.44 5.252-12.768C23.219-.77 13.918 8.898 9.965 12.541c-.208.191-.435-.022-.267-.25 1.944-2.638 4.488-5.56 4.945-8.597a1.807 1.807 0 0 0-.238-1.214 2.057 2.057 0 0 0-.971-.854C9.124-.284 4.203 9.028 1.98 12.472Z"/></svg>
